X:301
T:Donna Donna
O:klezmer
S:Digital Tradition, donadona
H:Original Yiddish words by Aaron Zeitlin and Shalom Secunda;
H:English translation by Arthur Kevess and Teddi Schwartz
N:Author: Shalom Secunda
B:From Joan Baez Songbook
D:Sung by Joan Baez and Chad Mitchell
Z:dt:donadona
M:4/4
L:1/8
Q:1/4=100
W:On a wagon bound for market
W:There's a calf with a mournful eye.
W:High above him there's a swallow
W:Winging swiftly through the sky.
W:
W:How the winds are laughing
W:They laugh with all their might
W:Laugh and laugh the whole day through
W:And half the summer's night.
W:
W:Dona dona dona dona
W:Dona dona dona down
W:Dona dona dona dona
W:Dona dona dona down
W:
W:"Stop complaining," said the farmer,
W:"Who told you a calf to be"
W:Why don't you have wings to fly away
W:Like the swallow so proud and free?"
W:
W:Calves are easily bound and slaughtered
W:Never knowing the reason why.
W:But whoever treasures freedom,
W:Like the swallow must learn to fly
K:G
B2E2 F-GA2|B2E2 F-GA2|z2BE c2BA|G2A2 B4|\
B2E2 F-GA2|B2E2 F-GA2|z2BE c2B-A|G2F2 E4|
zd2d d2c2|B-AG4zG|A3A d2c2|B8|\
zd2d d3c|B2A2 G3A|B3A GF3|E8|
FFFF A3A|G-AB4z2|AAAA d2d-c|B8|\
FFFF A3A|G-AB6|BFGA G2F2|E6z2||





